proprietary/assets/icons/geld-en-financien/omzetbelasting.svg

<svg enable-background="new 0 0 64 64" viewBox="0 0 64 64" xmlns="http://www.w3.org/2000/svg"><path d="m0 0h64v64h-64z" fill="none"/><path d="m2 42c-.552 0-1 .448-1 1v12c0 .552.448 1 1 1h33.099c-.074-1.755-.099-3.512-.099-5 0-2.659.076-6.164.386-9zm29 7.779v2.221h-2v-2.221c-.624-.352-1.05-1.012-1.05-1.779 0-1.132.918-2.05 2.05-2.05s2.05.918 2.05 2.05c0 .767-.426 1.428-1.05 1.779z"/><path d="m51 35c1.205 0 2.586.015 4 .06v-1.727c0-.866-.281-1.708-.8-2.4l-5.2-6.933-1.518-7.588c-.28-1.403-1.511-2.412-2.941-2.412h-13.982c.864-1.939 1.529-4.276 1.049-7.312l-.267-1.688h-13.369l.365 2.312c.441 2.792-.466 4.622-1.555 6.688h-1.322c-1.43 0-2.661 1.009-2.942 2.412l-1.518 7.588-5.2 6.933c-.519.692-.8 1.534-.8 2.4v6.667h30.689c.517-2.26 2.334-4.009 4.644-4.394 3.005-.501 7.459-.606 10.667-.606zm-23.581-10h-9.32c-4.496-8 3.478-10 2.213-18h9.32c1.265 8-6.709 10-2.213 18zm5.581-3v-5h11.541l1 5z"/><path d="m55.794 51.93c-.847 0-1.025.976-1.025 1.795 0 1.633.508 1.853 1.005 1.853.706 0 1.063-.552 1.063-1.641.001-1.799-.595-2.007-1.043-2.007z"/><path d="m46.225 46.307c-.863 0-1.044.976-1.044 1.795 0 1.632.518 1.853 1.024 1.853.863 0 1.044-.892 1.044-1.641.001-1.799-.584-2.007-1.024-2.007z"/><path d="m63.435 40.826c-.195-1.173-1.087-2.065-2.261-2.261-3.391-.565-9.044-.565-10.174-.565s-6.783 0-10.174.565c-1.173.196-2.065 1.088-2.26 2.261-.566 3.391-.566 9.044-.566 10.174s0 6.783.565 10.174c.195 1.173 1.087 2.065 2.26 2.261 3.392.565 9.045.565 10.175.565s6.783 0 10.174-.565c1.174-.196 2.066-1.088 2.261-2.261.565-3.391.565-9.044.565-10.174 0-3.393 0-6.783-.565-10.174zm-20.576 7.449c0-2.896 1.844-3.924 3.423-3.924 2.09 0 3.289 1.374 3.289 3.77 0 2.617-1.785 3.809-3.443 3.809-1.491 0-3.269-.634-3.269-3.655zm6.434 9.727-1.839-.727 5.232-13.277 1.839.727zm6.405-.449c-1.491 0-3.269-.634-3.269-3.655 0-2.896 1.844-3.924 3.423-3.924 2.09 0 3.289 1.374 3.289 3.77 0 2.631-1.729 3.809-3.443 3.809z"/></svg>

<?xml version="1.0" encoding="utf-8"?>
<!-- Generator: Adobe Illustrator 25.2.0, SVG Export Plug-In . SVG Version: 6.00 Build 0)  -->
<svg version="1.1" xmlns="http://www.w3.org/2000/svg" xmlns:xlink="http://www.w3.org/1999/xlink" x="0px" y="0px"
	 viewBox="0 0 64 64" style="enable-background:new 0 0 64 64;" xml:space="preserve">
<style type="text/css">
	.st0{fill:none;}
	.st1{fill:#FFFFFF;}
	.st2{fill:#B3B3B3;}
</style>
<g id="Box">
	<rect class="st0" width="64" height="64"/>
</g>
<g id="Icon">
	<g>
		<path d="M2,42c-0.552,0-1,0.448-1,1v12c0,0.552,0.448,1,1,1h33.099C35.025,54.245,35,52.488,35,51c0-2.659,0.076-6.164,0.386-9H2z
			 M31,49.779V52h-2v-2.221c-0.624-0.352-1.05-1.012-1.05-1.779c0-1.132,0.918-2.05,2.05-2.05s2.05,0.918,2.05,2.05
			C32.05,48.767,31.624,49.428,31,49.779z"/>
		<path d="M51,35c1.205,0,2.586,0.015,4,0.06v-1.727c0-0.866-0.281-1.708-0.8-2.4L49,24l-1.518-7.588
			C47.202,15.009,45.971,14,44.541,14H30.559c0.864-1.939,1.529-4.276,1.049-7.312L31.341,5H17.972l0.365,2.312
			c0.441,2.792-0.466,4.622-1.555,6.688h-1.322c-1.43,0-2.661,1.009-2.942,2.412L11,24l-5.2,6.933c-0.519,0.692-0.8,1.534-0.8,2.4
			V40h30.689c0.517-2.26,2.334-4.009,4.644-4.394C43.338,35.105,47.792,35,51,35z M27.419,25h-9.32c-4.496-8,3.478-10,2.213-18h9.32
			C30.897,15,22.923,17,27.419,25z M33,22v-5h11.541l1,5H33z"/>
		<path d="M55.794,51.93c-0.847,0-1.025,0.976-1.025,1.795c0,1.633,0.508,1.853,1.005,1.853c0.706,0,1.063-0.552,1.063-1.641
			C56.838,52.138,56.242,51.93,55.794,51.93z"/>
		<path d="M46.225,46.307c-0.863,0-1.044,0.976-1.044,1.795c0,1.632,0.518,1.853,1.024,1.853c0.863,0,1.044-0.892,1.044-1.641
			C47.25,46.515,46.665,46.307,46.225,46.307z"/>
		<path d="M63.435,40.826c-0.195-1.173-1.087-2.065-2.261-2.261C57.783,38,52.13,38,51,38c-1.13,0-6.783,0-10.174,0.565
			c-1.173,0.196-2.065,1.088-2.26,2.261C38,44.217,38,49.87,38,51c0,1.13,0,6.783,0.565,10.174c0.195,1.173,1.087,2.065,2.26,2.261
			C44.217,64,49.87,64,51,64s6.783,0,10.174-0.565c1.174-0.196,2.066-1.088,2.261-2.261C64,57.783,64,52.13,64,51
			C64,47.607,64,44.217,63.435,40.826z M42.859,48.275c0-2.896,1.844-3.924,3.423-3.924c2.09,0,3.289,1.374,3.289,3.77
			c0,2.617-1.785,3.809-3.443,3.809C44.637,51.93,42.859,51.296,42.859,48.275z M49.293,58.002l-1.839-0.727l5.232-13.277
			l1.839,0.727L49.293,58.002z M55.698,57.553c-1.491,0-3.269-0.634-3.269-3.655c0-2.896,1.844-3.924,3.423-3.924
			c2.09,0,3.289,1.374,3.289,3.77C59.141,56.375,57.412,57.553,55.698,57.553z"/>
	</g>
</g>
</svg>
